public/media/theme/icon-intro2.svg

<?xml version="1.0" encoding="UTF-8"?>
<svg width="146px" height="116px" viewBox="0 0 146 116" version="1.1" xmlns="http://www.w3.org/2000/svg" xmlns:xlink="http://www.w3.org/1999/xlink">
    <!-- Generator: Sketch 43.1 (39012) - http://www.bohemiancoding.com/sketch -->
    <title>Icon 2</title>
    <desc>Created with Sketch.</desc>
    <defs>
        <path d="M29,28.9979064 C29,26.2376389 31.2338221,24 33.9950291,24 L38.0049709,24 C40.7636493,24 43,26.2294619 43,28.9979064 L43,102 L29,102 L29,28.9979064 Z" id="path-1"></path>
        <path d="M51,65.0036561 C51,62.2402132 53.2338221,60 55.9950291,60 L60.0049709,60 C62.7636493,60 65,62.2432539 65,65.0036561 L65,102 L51,102 L51,65.0036561 Z" id="path-2"></path>
        <path d="M62,79.0058389 C62,76.2411904 64.2338221,74 66.9950291,74 L71.0049709,74 C73.7636493,74 76,76.2440262 76,79.0058389 L76,102 L62,102 L62,79.0058389 Z" id="path-3"></path>
        <path d="M40,14.995285 C40,12.2364653 42.2338221,10 44.9950291,10 L49.0049709,10 C51.7636493,10 54,12.2285847 54,14.995285 L54,102 L40,102 L40,14.995285 Z" id="path-4"></path>
    </defs>
    <g id="Screens---Source-Sans-Pro" stroke="none" stroke-width="1" fill="none" fill-rule="evenodd">
        <g id="30---First-Touch-with-App" transform="translate(-717.000000, -265.000000)">
            <g id="Get-Started" transform="translate(205.000000, 214.000000)">
                <g id="2" transform="translate(400.000000, 0.000000)">
                    <g id="Icon-2" transform="translate(112.000000, 51.000000)">
                        <path d="M43.862,101 C28.892,91.172 19,74.246 19,55 C19,24.624 43.624,0 74,0 C104.375,0 129,24.624 129,55 C129,74.246 119.107,91.172 104.137,101 L43.862,101 Z" id="Base" fill="#CEECD3"></path>
                        <path d="M74,19 C93.33,19 109,34.67 109,54 C109,73.33 93.33,89 74,89 C54.67,89 39,73.33 39,54 C39,34.67 54.67,19 74,19" id="Lighter-Base" fill="#DFF3E3"></path>
                        <path d="M118.5,99 L24.5,99 C23.672,99 23,99.672 23,100.5 C23,101.328 23.672,102 24.5,102 L118.5,102 C119.328,102 120,101.328 120,100.5 C120,99.672 119.328,99 118.5,99 M123.5,99 C122.672,99 122,99.672 122,100.5 C122,101.328 122.672,102 123.5,102 C124.328,102 125,101.328 125,100.5 C125,99.672 124.328,99 123.5,99" id="Lines" fill="#354052"></path>
                        <path d="M93.5,106 L39.5,106 C38.672,106 38,106.672 38,107.5 C38,108.328 38.672,109 39.5,109 L93.5,109 C94.328,109 95,108.328 95,107.5 C95,106.672 94.328,106 93.5,106 M105.5,106 L98.5,106 C97.672,106 97,106.672 97,107.5 C97,108.328 97.672,109 98.5,109 L105.5,109 C106.328,109 107,108.328 107,107.5 C107,106.672 106.328,106 105.5,106 M83.5,113 L49.5,113 C48.672,113 48,113.672 48,114.5 C48,115.328 48.672,116 49.5,116 L83.5,116 C84.328,116 85,115.328 85,114.5 C85,113.672 84.328,113 83.5,113 M91.5,113 L88.5,113 C87.672,113 87,113.672 87,114.5 C87,115.328 87.672,116 88.5,116 L91.5,116 C92.328,116 93,115.328 93,114.5 C93,113.672 92.328,113 91.5,113" id="Lines" fill="#1BB934"></path>
                        <path d="M92,30 C111.882251,30 128,46.117749 128,66 C128,76.1954634 123.761744,85.401029 116.950964,91.9509638 L92,67 L92,30 Z" id="Icon-Part" fill="#EDF9FE"></path>
                        <path d="M56,30 C75.882251,30 92,46.117749 92,66 C92,76.1954634 87.7617436,85.401029 80.9509638,91.9509638 L56,67 L56,30 Z" id="Icon-Part" fill="#1BB934" transform="translate(74.000000, 60.975482) scale(-1, 1) translate(-74.000000, -60.975482) "></path>
                        <path d="M66.2069102,91.1140988 C72.7464786,97.8293553 81.8861862,102 92,102 C101.686788,102 110.47999,98.1741068 116.950964,91.9509638 L92,67 L66.2069102,91.1140988 Z" id="Icon-Part" fill="#FFFFFF"></path>
                        <circle id="Icon-Part" stroke="#354052" stroke-width="3" cx="92" cy="66" r="34.5"></circle>
                        <rect id="Icon-Part" fill="#354052" x="90" y="32" width="3" height="35" rx="1.5"></rect>
                        <rect id="Icon-Part" fill="#354052" transform="translate(103.500000, 78.500000) rotate(-45.000000) translate(-103.500000, -78.500000) " x="102" y="61" width="3" height="35" rx="1.5"></rect>
                        <rect id="Icon-Part" fill="#354052" transform="translate(79.500000, 78.500000) rotate(-315.000000) translate(-79.500000, -78.500000) " x="78" y="61" width="3" height="35" rx="1.5"></rect>
                        <g id="Icon-Part">
                            <use fill="#EDF9FE" fill-rule="evenodd" xlink:href="#path-1"></use>
                            <path stroke="#354052" stroke-width="3" d="M41.5,100.5 L30.5,100.5 L30.5,28.9979064 C30.5,27.0648813 32.0634335,25.5 33.9950291,25.5 L38.0049709,25.5 C39.9382341,25.5 41.5,27.0608995 41.5,28.9979064 L41.5,100.5 Z"></path>
                        </g>
                        <g id="Icon-Part">
                            <use fill="#EDF9FE" fill-rule="evenodd" xlink:href="#path-2"></use>
                            <path stroke="#354052" stroke-width="3" d="M63.5,100.5 L52.5,100.5 L52.5,65.0036561 C52.5,63.0670691 54.0638202,61.5 55.9950291,61.5 L60.0049709,61.5 C61.933453,61.5 63.5,63.0699113 63.5,65.0036561 L63.5,100.5 Z"></path>
                        </g>
                        <g id="Icon-Part">
                            <use fill="#EDF9FE" fill-rule="evenodd" xlink:href="#path-3"></use>
                            <path stroke="#354052" stroke-width="3" d="M74.5,100.5 L63.5,100.5 L63.5,79.0058389 C63.5,77.0678999 65.063967,75.5 66.9950291,75.5 L71.0049709,75.5 C72.9333868,75.5 74.5,77.0706179 74.5,79.0058389 L74.5,100.5 Z"></path>
                        </g>
                        <g id="Icon-Part">
                            <use fill="#1BB934" fill-rule="evenodd" xlink:href="#path-4"></use>
                            <path stroke="#354052" stroke-width="3" d="M52.5,100.5 L41.5,100.5 L41.5,14.995285 C41.5,13.0638842 43.0632572,11.5 44.9950291,11.5 L49.0049709,11.5 C50.9382955,11.5 52.5,13.0600827 52.5,14.995285 L52.5,100.5 Z"></path>
                        </g>
                        <path d="M53.9151755,50.5044569 C53.9701514,50.3483027 54,50.1802537 54,50.0051863 L54,44 L54,45.0006117 C54,45.8299642 53.3342028,46.5022873 52.5,46.5022873 C51.6715729,46.5022873 51,45.8310979 51,45.0006117 L51,44 L51,50.0051863 C51,50.1794987 51.0299484,50.3469531 51.084998,50.5026725 C51.2898065,49.9198078 51.8426124,49.5022873 52.5,49.5022873 C53.1536689,49.5022873 53.7096807,49.9201678 53.9151755,50.5044569 Z" id="Icon-Part" fill="#EDF9FE"></path>
                        <path d="M53.9151755,56.5044569 C53.9701514,56.3483027 54,56.1802537 54,56.0051863 L54,50 L54,51.0006117 C54,51.8299642 53.3342028,52.5022873 52.5,52.5022873 C51.6715729,52.5022873 51,51.8310979 51,51.0006117 L51,50 L51,56.0051863 C51,56.1794987 51.0299484,56.3469531 51.084998,56.5026725 C51.2898065,55.9198078 51.8426124,55.5022873 52.5,55.5022873 C53.1536689,55.5022873 53.7096807,55.9201678 53.9151755,56.5044569 Z" id="Icon-Part" fill="#EDF9FE"></path>
                        <path d="M138.5,4.0001 C137.672,4.0001 137,4.6721 137,5.5001 C137,6.3281 137.672,7.0001 138.5,7.0001 C139.328,7.0001 140,6.3281 140,5.5001 C140,4.6721 139.328,4.0001 138.5,4.0001 M1.5,41.0001 C0.672,41.0001 0,41.6721 0,42.5001 C0,43.3281 0.672,44.0001 1.5,44.0001 C2.328,44.0001 3,43.3281 3,42.5001 C3,41.6721 2.328,41.0001 1.5,41.0001 M21,2.0001 L20,2.0001 L20,1.0001 C20,0.4481 19.552,0.0001 19,0.0001 C18.448,0.0001 18,0.4481 18,1.0001 L18,2.0001 L17,2.0001 C16.448,2.0001 16,2.4481 16,3.0001 C16,3.5521 16.448,4.0001 17,4.0001 L18,4.0001 L18,5.0001 C18,5.5521 18.448,6.0001 19,6.0001 C19.552,6.0001 20,5.5521 20,5.0001 L20,4.0001 L21,4.0001 C21.552,4.0001 22,3.5521 22,3.0001 C22,2.4481 21.552,2.0001 21,2.0001 M8,71.0001 L7,71.0001 L7,70.0001 C7,69.4481 6.552,69.0001 6,69.0001 C5.448,69.0001 5,69.4481 5,70.0001 L5,71.0001 L4,71.0001 C3.448,71.0001 3,71.4481 3,72.0001 C3,72.5521 3.448,73.0001 4,73.0001 L5,73.0001 L5,74.0001 C5,74.5521 5.448,75.0001 6,75.0001 C6.552,75.0001 7,74.5521 7,74.0001 L7,73.0001 L8,73.0001 C8.552,73.0001 9,72.5521 9,72.0001 C9,71.4481 8.552,71.0001 8,71.0001 M145,34.0001 L144,34.0001 L144,33.0001 C144,32.4481 143.552,32.0001 143,32.0001 C142.448,32.0001 142,32.4481 142,33.0001 L142,34.0001 L141,34.0001 C140.448,34.0001 140,34.4481 140,35.0001 C140,35.5521 140.448,36.0001 141,36.0001 L142,36.0001 L142,37.0001 C142,37.5521 142.448,38.0001 143,38.0001 C143.552,38.0001 144,37.5521 144,37.0001 L144,36.0001 L145,36.0001 C145.552,36.0001 146,35.5521 146,35.0001 C146,34.4481 145.552,34.0001 145,34.0001" id="Decoration" fill="#BFC7D2"></path>
                    </g>
                </g>
            </g>
        </g>
    </g>
</svg>

<svg width="146" height="116" viewBox="0 0 146 116" xmlns="http://www.w3.org/2000/svg" xmlns:xlink="http://www.w3.org/1999/xlink"><title>Icon 2</title><defs><path d="M29 28.998A4.995 4.995 0 0 1 33.995 24h4.01A4.991 4.991 0 0 1 43 28.998V102H29V28.998z" id="a"/><path d="M51 65.004A4.998 4.998 0 0 1 55.995 60h4.01A5.001 5.001 0 0 1 65 65.004V102H51V65.004z" id="b"/><path d="M62 79.006A4.999 4.999 0 0 1 66.995 74h4.01A5.002 5.002 0 0 1 76 79.006V102H62V79.006z" id="c"/><path d="M40 14.995A4.994 4.994 0 0 1 44.995 10h4.01A4.99 4.99 0 0 1 54 14.995V102H40V14.995z" id="d"/></defs><g fill="none" fill-rule="evenodd"><path d="M43.862 101C28.892 91.172 19 74.246 19 55 19 24.624 43.624 0 74 0c30.375 0 55 24.624 55 55 0 19.246-9.893 36.172-24.863 46H43.862z" fill="#CEECD3"/><path d="M74 19c19.33 0 35 15.67 35 35S93.33 89 74 89 39 73.33 39 54s15.67-35 35-35" fill="#DFF3E3"/><path d="M118.5 99h-94a1.5 1.5 0 0 0 0 3h94a1.5 1.5 0 0 0 0-3m5 0a1.5 1.5 0 1 0 .001 3.001A1.5 1.5 0 0 0 123.5 99" fill="#354052"/><path d="M93.5 106h-54a1.5 1.5 0 0 0 0 3h54a1.5 1.5 0 0 0 0-3m12 0h-7a1.5 1.5 0 0 0 0 3h7a1.5 1.5 0 0 0 0-3m-22 7h-34a1.5 1.5 0 0 0 0 3h34a1.5 1.5 0 0 0 0-3m8 0h-3a1.5 1.5 0 0 0 0 3h3a1.5 1.5 0 0 0 0-3" fill="#1BB934"/><path d="M92 30c19.882 0 36 16.118 36 36 0 10.195-4.238 19.401-11.049 25.951L92 67V30z" fill="#EDF9FE"/><path d="M92 30c-19.882 0-36 16.118-36 36 0 10.195 4.238 19.401 11.049 25.951L92 67V30z" fill="#1BB934"/><path d="M66.207 91.114C72.747 97.83 81.887 102 92 102c9.687 0 18.48-3.826 24.951-10.049L92 67 66.207 91.114z" fill="#FFF"/><circle stroke="#354052" stroke-width="3" cx="92" cy="66" r="34.5"/><rect fill="#354052" x="90" y="32" width="3" height="35" rx="1.5"/><rect fill="#354052" transform="rotate(-45 103.5 78.5)" x="102" y="61" width="3" height="35" rx="1.5"/><rect fill="#354052" transform="rotate(45 79.5 78.5)" x="78" y="61" width="3" height="35" rx="1.5"/><use fill="#EDF9FE" xlink:href="#a"/><path stroke="#354052" stroke-width="3" d="M41.5 100.5h-11V28.998a3.495 3.495 0 0 1 3.495-3.498h4.01a3.491 3.491 0 0 1 3.495 3.498V100.5z"/><use fill="#EDF9FE" xlink:href="#b"/><path stroke="#354052" stroke-width="3" d="M63.5 100.5h-11V65.004a3.498 3.498 0 0 1 3.495-3.504h4.01a3.501 3.501 0 0 1 3.495 3.504V100.5z"/><use fill="#EDF9FE" xlink:href="#c"/><path stroke="#354052" stroke-width="3" d="M74.5 100.5h-11V79.006a3.499 3.499 0 0 1 3.495-3.506h4.01a3.502 3.502 0 0 1 3.495 3.506V100.5z"/><use fill="#1BB934" xlink:href="#d"/><path stroke="#354052" stroke-width="3" d="M52.5 100.5h-11V14.995a3.494 3.494 0 0 1 3.495-3.495h4.01a3.49 3.49 0 0 1 3.495 3.495V100.5z"/><path d="M53.915 50.504a1.5 1.5 0 0 0 .085-.499V44v1a1.5 1.5 0 0 1-3 0v-1 6.005c0 .174.03.342.085.498a1.5 1.5 0 1 1 2.83.002z" fill="#EDF9FE"/><path d="M53.915 56.504a1.5 1.5 0 0 0 .085-.499V50v1a1.5 1.5 0 0 1-3 0v-1 6.005c0 .174.03.342.085.498a1.5 1.5 0 1 1 2.83.002z" fill="#EDF9FE"/><path d="M138.5 4a1.5 1.5 0 1 0 .001 3.001 1.5 1.5 0 0 0-.001-3M1.5 41a1.5 1.5 0 1 0 .001 3 1.5 1.5 0 0 0-.001-3M21 2h-1V1a1 1 0 0 0-2 0v1h-1a1 1 0 0 0 0 2h1v1a1 1 0 0 0 2 0V4h1a1 1 0 0 0 0-2M8 71H7v-1a1 1 0 0 0-2 0v1H4a1 1 0 0 0 0 2h1v1a1 1 0 0 0 2 0v-1h1a1 1 0 0 0 0-2m137-37h-1v-1a1 1 0 0 0-2 0v1h-1a1 1 0 0 0 0 2h1v1a1 1 0 0 0 2 0v-1h1a1 1 0 0 0 0-2" fill="#BFC7D2"/></g></svg>
